X:1
T:Jim French's Step Tune
S:collected from Jim French, Moree NSW
N:collected by Chris Sullivan
N:Jim learnt the tune from Cecil Madden at Caroona Mission, near Quirindi NSW
O: Moree NSW
Q:1/4=170
M:4/4
L:1/8
K:G
A|"G"GBdB "D"~c2BA|"G"GBdB"D"c2A2|"G"GBdB"D"~c2A2|"D"FGAF D3A|
"G"GBdB "D"ce BA|"G"GBdB "D"c2A2|"G"BdBG "D"DFAA|"G"G2Bdg2z2|
"G"zGBd g2d2|"C"fece "G"d3d|defg "Am"a3a|agfe"D"d3z|
"G"zGBd g2d2|"C"fece "D"d3c|"G"BdBG "D"DFAA|"G"G2Bdg4|]
